X:1
T:the Duke of Richmond
T:the Duke of Richmond
T:William Marshall
C:William Marshall
%%score { 1 ( 2 3 ) }
L:1/8
M:4/4
K:Bb
V:1 treble 
V:2 bass 
V:3 bass 
V:1
"^SLOW" Tf2{=ef} (e/d/)(c/B/) (A/B/)(G/=E/) F2 | (F>B)(d>B) (f/e/)d/e/ [Fc]2 | %2
 Tf2 (e/d/)(c/B/) (A/B/)(G/=E/) F2 | (B,/D/F/B/) (d/f/e/d/) T[Ac]2 [FB]2 | %4
 Tf2{=ef} (e/d/)(c/B/) (A/B/)(G/=E/) F2 | (F>B)(d>B) (f/e/)d/e/ [Fc]2 | %6
 Tf2 (e/d/)(c/B/) (A/B/)(G/=E/) F2 | (B,/D/F/B/) (d/f/e/d/) T[Ac]2 [FB]2 |] %8
{B} Tc2 (B/A/)(G/F/) (F/A/)(c/d/) e2 | (d>B) (g>f) (=e/f/)g/e/ f2 | %10
 (g/f/g/a/) .b>.B (e/d/e/f/) .g.E | (c>d) (e>d) c/B/A/G/{=E} F2 | (B>d) (c>d) A/G/F/E/{=B} c2 | %13
 (c>e)(d>f) e/d/c/B/ f2 | (g/f/g/a/) (b/g/)f/e/ (d/f/g/a/) (b/f/)d/B/ | %15
 (B,/D/F/B/) (d/f/e/d/) T[Ac]2 [DB]2 |] %16
V:2
 B/b/d/b/ f/b/d/b/ B/b/e/b/ d/b/B/b/ | %1
 [bd']/f/[bd']/f/ [bd']/f/[bd']/f/ [ae']/f/[ae']/f/ [ae']/f/[ae']/f/ | %2
 B/b/d/b/ f/b/d/b/ B/b/e/b/ d/b/B/b/ | B>b [fb]/d'/c'/b/ f[c'e'] [bd']2 | %4
 B/b/d/b/ f/b/d/b/ B/b/e/b/ d/b/B/b/ | %5
 [bd']/f/[bd']/f/ [bd']/f/[bd']/f/ [ae']/f/[ae']/f/ [ae']/f/[ae']/f/ | %6
 B/b/d/b/ f/b/d/b/ B/b/e/b/ d/b/B/b/ | B>b [fb]/d'/c'/b/ f[c'e'] [bd']2 |] %8
 [c'e']/f/[c'e']/f/ [c'e']/f/[c'e']/f/ [c'e']/f/[c'e']/f/ [c'e']/f/[c'e']/f/ | %9
 [bd']/f/[bd']/f/ [bd']/f/[bd']/f/ g/[bc']/[bc']/[bc']/ a/c'/f'/d'/ | %10
 [be']>[be'] d'/b/f'/_a'/ g'>d' e'/e/c'/b/ | f'4 f'2 e'2 | d'/^c'/d'/b/ a/g/a/b/ c'e' a/f/a/b/ | %13
 a/g/a/c'/ b/a/b/d'/ c'/a/e'/d'/ d'/b/c'/d'/ | e'e' e'd'/c'/ d'b b2 | bb b/d'/c'/b/ fe' b2 |] %16
V:3
 x8 | x8 | x8 | x8 | x8 | x8 | x8 | x8 |] x8 | x8 | x8 | A,>B, C<D E2 E/F/G/F/ | F,4 F,4 | %13
 F,4 F,4 | B,B, B,2 B,E, D,2 | B,,D, F,2 F,C B,,2 |] %16

